assets/img/icons/heart.svg

<?xml version="1.0" encoding="UTF-8" standalone="no"?>
<svg width="32px" height="29px" viewBox="0 0 32 29" version="1.1" xmlns="http://www.w3.org/2000/svg" xmlns:xlink="http://www.w3.org/1999/xlink" xmlns:sketch="http://www.bohemiancoding.com/sketch/ns">
    <!-- Generator: Sketch 3.3.2 (12043) - http://www.bohemiancoding.com/sketch -->
    <title>Artboard 1</title>
    <desc>Created with Sketch.</desc>
    <defs></defs>
    <path d="M30.3195796,14.2502456 C34.7125118,4.96437091 29.6767114,0.0357147753 24.5694802,-8.8817842e-15 C23.0337392,-8.8817842e-15 21.4979993,0.428578447 20.2122628,1.32145126 C16.8193466,3.64291965 15.9979044,6.85726086 15.9979044,6.85726086 C15.9979044,6.85726086 15.1764612,3.67863443 11.7835461,1.35716603 C10.5335244,0.464293222 9.06921289,0.0357147753 7.56918775,0.0357147753 C2.42624182,-0.0357147753 -2.75241888,4.89294136 1.67622926,14.2859604 C5.8905876,23.250401 13.8192951,28.5719208 15.9979044,28.5719208 C18.1765126,28.5719208 26.1052213,23.2146851 30.3195796,14.2502456 L30.3195796,14.2502456 Z" id="Shape" sketch:type="MSShapeGroup"></path>
</svg>

<svg width="32" height="29" viewBox="0 0 32 29" xmlns="http://www.w3.org/2000/svg">
    <title>Heart</title>
    <path d="M30.32 14.25c4.393-9.286-.643-14.215-5.75-14.25-1.536 0-3.071.429-4.357 1.321-3.393 2.321-4.214 5.536-4.214 5.536s-.821-3.179-4.214-5.5c-1.25-.893-2.714-1.321-4.214-1.321-5.143-.071-10.322 4.857-5.893 14.25 4.214 8.964 12.143 14.286 14.322 14.286 2.179 0 10.107-5.357 14.322-14.322z" />
</svg>
